img/adobe/illustrator.svg

<svg xmlns="http://www.w3.org/2000/svg" viewBox="0 0 54 54"><title>illustrator</title><g data-name="Layer 2"><g data-name="Adobe icons"><path d="M50.17 54H3.83A3.84 3.84 0 0 1 0 50.16V3.83A3.84 3.84 0 0 1 3.83 0h46.34A3.84 3.84 0 0 1 54 3.83v46.33A3.84 3.84 0 0 1 50.17 54zM3.83 2A1.83 1.83 0 0 0 2 3.83v46.33A1.83 1.83 0 0 0 3.83 52h46.34A1.83 1.83 0 0 0 52 50.16V3.83A1.83 1.83 0 0 0 50.17 2z"/><path d="M19.83 32.44l-1.44 5.19h-4.74l6.18-20.22h6l6.27 20.22h-4.92l-1.56-5.19zM25 29l-1.3-4.27c-.36-1.2-.72-2.7-1-3.9h-.06c-.3 1.2-.6 2.73-.93 3.9L20.49 29zM39.18 18.88a2.29 2.29 0 0 1-2.46 2.28 2.3 2.3 0 1 1 0-4.59 2.29 2.29 0 0 1 2.46 2.31zm-4.71 18.75V23H39v14.63z"/></g></g></svg>

<svg xmlns="http://www.w3.org/2000/svg" viewBox="0 0 54 54"><title>illustrator</title><g id="Layer_2" data-name="Layer 2"><g id="Adobe_icons" data-name="Adobe icons"><path d="M50.17,54H3.83A3.84,3.84,0,0,1,0,50.16V3.83A3.84,3.84,0,0,1,3.83,0H50.17A3.84,3.84,0,0,1,54,3.83V50.16A3.84,3.84,0,0,1,50.17,54ZM3.83,2A1.83,1.83,0,0,0,2,3.83V50.16A1.83,1.83,0,0,0,3.83,52H50.17A1.83,1.83,0,0,0,52,50.16V3.83A1.83,1.83,0,0,0,50.17,2Z"/><path d="M19.83,32.44l-1.44,5.19H13.65l6.18-20.22h6L32.1,37.63H27.18l-1.56-5.19ZM25,29,23.7,24.73c-.36-1.2-.72-2.7-1-3.9h-.06c-.3,1.2-.6,2.73-.93,3.9L20.49,29Z"/><path d="M39.18,18.88a2.29,2.29,0,0,1-2.46,2.28,2.3,2.3,0,1,1,0-4.59A2.29,2.29,0,0,1,39.18,18.88ZM34.47,37.63V23H39V37.63Z"/></g></g></svg>
